X: 20702
T: LIGHTNING HORNPIPE
C:
%R: hornpipe, jig
B: Elias Howe "The Musician's Companion" 1843 p.70 #2
S: http://imslp.org/wiki/The_Musician's_Companion_(Howe,_Elias)
Z: 2015 John Chambers <jc:trillian.mit.edu>
M: 6/8
L: 1/8
K: Eb
% - - - - - - - - - - - - - - - - - - - - - - - - -
E/E/ |\
E2G G2B | B2e e2g | f=ef dfa | c'b=a b2 E/E/ |\
E2G G2B | B2e e2g | f=ef aBd | fee e2 :|
|: f |\
f2f f=ef | b2f d2d | f2e c2=A | B2d f2f |\
f2f f=ef | b2f d2d | fec =AGA |cBB "^D.C."B2 :|
% - - - - - - - - - - - - - - - - - - - - - - - - -

%%sep 1 1 500

